svg/black/eql.svg

<svg height="32" viewBox="0 0 32 32" width="32" xmlns="http://www.w3.org/2000/svg"><path d="m16 32c-8.836556 0-16-7.163444-16-16s7.163444-16 16-16 16 7.163444 16 16-7.163444 16-16 16zm-5.9730973-12.620773.744041-1.4785431c.0572339-.1144679.047695-.2480137-.019078-.3624815-.0667729-.1049289-.1907797-.1717018-.3147865-.1717018h-1.60254996l4.19715456-7.75519694 3.7488221 6.82037614c.0667729.1144678.1907798.1907797.3243256.1907797h1.6884008c.1335458 0 .2575527-.0667729.3147866-.1812407.0667729-.1144679.0667729-.2575527.009539-.3720205l-5.7710875-10.37841855c-.1335458-.23847469-.5151054-.23847469-.6486512 0l-7.40225436 13.34504365c-.06677292.1144679-.05723393.2575527.00953898.3720205.06677292.1144679.19077976.1812408.3147866.1812408h4.0731477c.14308482 0 .27663064-.0858509.33386458-.2098577zm16.6741503-.3434036-7.4117933-13.34504365c-.066773-.12400684-.2098578-.19077975-.3338646-.19077975-.1335458 0-.2575527.08585089-.3243256.20031874l-1.8505636 3.71066618c-.0476949.10492886-.0476949.2289357 0 .33386456l.744041 1.47854312c.1240069.2480136.5341834.2480136.6677292 0l.791736-1.58347198 4.1876155 7.72657998h-7.9078207c-.2003188 0-.3720205.1621628-.3720205.3720205v1.4785431c0 .2003187.1621628.3720205.3720205.3720205h11.1129205c.1335459 0 .2575527-.0667729.3147866-.1812408.0763119-.1144678.0763119-.2575526.009539-.3720205zm-4.8171887 1.4785431c-.0667729-.1144679-.1907798-.1907798-.3243256-.1907798h-1.8505636c-.1335458 0-.2575527.0763119-.3243256.1907798-.0667729.1144678-.0667729.2575527.009539.3720205l.772658 1.2877633h-8.3370752l3.7583612-6.4865115c.0667729-.1049289.0667729-.2384747.009539-.3529426l-.7440411-1.4785431c-.0572339-.1240068-.1812407-.2003187-.3243256-.2003187-.1335458-.009539-.2670916.0667729-.3338645.1907798l-2.9570862 5.1796702-2.96662513 4.8171888c-.06677291.1144678-.0763119.2575526-.00953899.3720205.06677292.1144678.19077975.1907797.32432558.1907797h14.82358674c.1335458 0 .2575527-.0667729.3147866-.1812407.0667729-.1144679.0667729-.2575527 0-.3720205z"/></svg>

<svg xmlns="http://www.w3.org/2000/svg" width="32" height="32" viewBox="0 0 32 32">
  <path d="M16,32 C7.163444,32 0,24.836556 0,16 C0,7.163444 7.163444,0 16,0 C24.836556,0 32,7.163444 32,16 C32,24.836556 24.836556,32 16,32 Z M10.0269027,19.379227 L10.7709437,17.9006839 C10.8281776,17.786216 10.8186387,17.6526702 10.7518657,17.5382024 C10.6850928,17.4332735 10.561086,17.3665006 10.4370792,17.3665006 L8.83452924,17.3665006 L13.0316838,9.61130366 L16.7805059,16.4316798 C16.8472788,16.5461476 16.9712857,16.6224595 17.1048315,16.6224595 L18.7932323,16.6224595 C18.9267781,16.6224595 19.050785,16.5556866 19.1080189,16.4412188 C19.1747918,16.3267509 19.1747918,16.1836661 19.1175579,16.0691983 L13.3464704,5.69077975 C13.2129246,5.45230506 12.831365,5.45230506 12.6978192,5.69077975 L5.29556484,19.0358234 C5.22879192,19.1502913 5.23833091,19.2933761 5.30510382,19.4078439 C5.37187674,19.5223118 5.49588358,19.5890847 5.61989042,19.5890847 L9.69303812,19.5890847 C9.83612294,19.5890847 9.96966876,19.5032338 10.0269027,19.379227 Z M26.701053,19.0358234 L19.2892597,5.69077975 C19.2224867,5.56677291 19.0794019,5.5 18.9553951,5.5 C18.8218493,5.5 18.6978424,5.58585089 18.6310695,5.70031874 L16.7805059,9.41098492 C16.732811,9.51591378 16.732811,9.63992062 16.7805059,9.74484948 L17.5245469,11.2233926 C17.6485538,11.4714062 18.0587303,11.4714062 18.1922761,11.2233926 L18.9840121,9.63992062 L23.1716276,17.3665006 L15.2638069,17.3665006 C15.0634881,17.3665006 14.8917864,17.5286634 14.8917864,17.7385211 L14.8917864,19.2170642 C14.8917864,19.4173829 15.0539492,19.5890847 15.2638069,19.5890847 L26.3767274,19.5890847 C26.5102733,19.5890847 26.6342801,19.5223118 26.691514,19.4078439 C26.7678259,19.2933761 26.7678259,19.1502913 26.701053,19.0358234 Z M21.8838643,20.5143665 C21.8170914,20.3998986 21.6930845,20.3235867 21.5595387,20.3235867 L19.7089751,20.3235867 C19.5754293,20.3235867 19.4514224,20.3998986 19.3846495,20.5143665 C19.3178766,20.6288343 19.3178766,20.7719192 19.3941885,20.886387 L20.1668465,22.1741503 L11.8297713,22.1741503 L15.5881325,15.6876388 C15.6549054,15.5827099 15.6549054,15.4491641 15.5976715,15.3346962 L14.8536304,13.8561531 C14.7963965,13.7321463 14.6723897,13.6558344 14.5293048,13.6558344 C14.395759,13.6462954 14.2622132,13.7226073 14.1954403,13.8466142 L11.2383541,19.0262844 L8.27172897,23.8434732 C8.20495606,23.957941 8.19541707,24.1010258 8.26218998,24.2154937 C8.3289629,24.3299615 8.45296973,24.4062734 8.58651556,24.4062734 L23.4101023,24.4062734 C23.5436481,24.4062734 23.667655,24.3395005 23.7248889,24.2250327 C23.7916618,24.1105648 23.7916618,23.96748 23.7248889,23.8530122 L21.8838643,20.5143665 Z"/>
</svg>
